TV/Source/AMC.svg

<svg height="486.58008" viewBox="0 0 1000 456.16882" width="1066.6666" xmlns="http://www.w3.org/2000/svg"><g transform="translate(-40.766489 -173.35579)"><path d="m40.766489 173.35579h1000.000011v456.16882h-1000.000011z" fill="#fff"/><g><path d="m266.87241 274.9391c-80.22149 0-106.48336 50.62832-106.48336 78.6323h55.347c1.88557-14.79907 17.34243-31.80804 53.01339-31.80804 36.31609 0 50.5276 22.82591 50.5276 51.6944h-26.98864c-90.16974 0-141.03084 24.98903-141.03084 80.45861 0 39.60995 39.00381 74.87824 89.69156 74.87824 31.9161 0 68.01013-15.19362 79.84983-24.85795l.81169 18.46591h51.94805v-136.36364c0-68.66472-27.41087-111.09983-106.68628-111.09983zm33.53287 141.74107h19.58198v13.6465c0 28.47049-27.90099 51.23783-67.77597 51.23783-24.34521 0-44.74432-8.90227-44.74432-26.02476 0-23.56203 18.58237-38.85957 92.93831-38.85957z"/><path d="m407.6496 522.38175v-241.06317h86.03896l47.0944 175.11969 45.43807-175.11969h87.66233v241.06317h-55.51368v-183.65668l-51.62917 183.65668h-52.70177l-51.19433-183.28602v183.28602z"/><path d="m877.84904 431.50166h55.65862c-8.24977 45.80357-49.72109 97.40259-114.94086 97.40259-82.1698 0-118.27457-71.16063-118.27457-126.39145 0-74.85557 47.25722-127.40609 117.83974-127.40609 62.00134 0 105.53178 45.0226 114.65097 97.11271h-54.64401c-6.3733-20.04331-25.96591-47.10692-60.00696-47.10692-38.35379 0-64.50023 38.20297-64.50023 76.24073 0 45.68469 31.12242 77.25534 64.35529 77.25534 30.37727 0 52.60196-23.55422 59.86201-47.10691z"/></g></g></svg>

<?xml version="1.0" encoding="UTF-8" standalone="no"?>
<!-- Created with Inkscape (http://www.inkscape.org/) -->

<svg
   xmlns:dc="http://purl.org/dc/elements/1.1/"
   xmlns:cc="http://creativecommons.org/ns#"
   xmlns:rdf="http://www.w3.org/1999/02/22-rdf-syntax-ns#"
   xmlns:svg="http://www.w3.org/2000/svg"
   xmlns="http://www.w3.org/2000/svg"
   xmlns:sodipodi="http://sodipodi.sourceforge.net/DTD/sodipodi-0.dtd"
   xmlns:inkscape="http://www.inkscape.org/namespaces/inkscape"
   width="1066.6666"
   height="486.58008"
   id="svg2"
   version="1.1"
   inkscape:version="0.92.0 r15299"
   sodipodi:docname="AMC.svg"
   viewBox="0 0 1000 456.16882">
  <defs
     id="defs4" />
  <sodipodi:namedview
     id="base"
     pagecolor="#ffffff"
     bordercolor="#666666"
     borderopacity="1.0"
     inkscape:pageopacity="0.0"
     inkscape:pageshadow="2"
     inkscape:zoom="0.98994949"
     inkscape:cx="502.19896"
     inkscape:cy="221.97717"
     inkscape:document-units="px"
     inkscape:current-layer="layer1"
     showgrid="false"
     fit-margin-top="0"
     fit-margin-left="0"
     fit-margin-right="0"
     fit-margin-bottom="0"
     inkscape:window-width="1920"
     inkscape:window-height="1017"
     inkscape:window-x="-8"
     inkscape:window-y="-8"
     inkscape:window-maximized="1">
    <inkscape:grid
       type="xygrid"
       id="grid2996"
       empspacing="5"
       visible="true"
       enabled="true"
       snapvisiblegridlinesonly="true"
       originx="0"
       originy="0"
       spacingx="1"
       spacingy="1" />
  </sodipodi:namedview>
  <metadata
     id="metadata7">
    <rdf:RDF>
      <cc:Work
         rdf:about="">
        <dc:format>image/svg+xml</dc:format>
        <dc:type
           rdf:resource="http://purl.org/dc/dcmitype/StillImage" />
        <dc:title></dc:title>
      </cc:Work>
    </rdf:RDF>
  </metadata>
  <g
     inkscape:label="Layer 1"
     inkscape:groupmode="layer"
     id="layer1"
     transform="translate(-40.766489,-173.35579)">
    <path
       style="fill:#ffffff;stroke:none;stroke-width:1.62337661;fill-opacity:1"
       d="M 40.766489,173.35579 H 1040.7665 V 629.52461 H 40.766489 Z"
       id="path3013"
       inkscape:connector-curvature="0" />
    <g
       id="g829"
       style="fill:#000000;fill-opacity:1">
      <path
         id="path2998"
         d="m 266.87241,274.9391 c -80.22149,0 -106.48336,50.62832 -106.48336,78.6323 h 55.347 c 1.88557,-14.79907 17.34243,-31.80804 53.01339,-31.80804 36.31609,0 50.5276,22.82591 50.5276,51.6944 H 292.2884 c -90.16974,0 -141.03084,24.98903 -141.03084,80.45861 0,39.60995 39.00381,74.87824 89.69156,74.87824 31.9161,0 68.01013,-15.19362 79.84983,-24.85795 l 0.81169,18.46591 h 51.94805 V 386.03893 c 0,-68.66472 -27.41087,-111.09983 -106.68628,-111.09983 z m 33.53287,141.74107 h 19.58198 v 13.6465 c 0,28.47049 -27.90099,51.23783 -67.77597,51.23783 -24.34521,0 -44.74432,-8.90227 -44.74432,-26.02476 0,-23.56203 18.58237,-38.85957 92.93831,-38.85957 z"
         style="fill:#000000;stroke:none;stroke-width:1.62337661;fill-opacity:1"
         inkscape:connector-curvature="0" />
      <path
         sodipodi:nodetypes="cccccccccccccc"
         inkscape:connector-curvature="0"
         id="path3007"
         d="M 407.6496,522.38175 V 281.31858 h 86.03896 l 47.0944,175.11969 45.43807,-175.11969 h 87.66233 V 522.38175 H 618.36968 V 338.72507 L 566.74051,522.38175 H 514.03874 L 462.84441,339.09573 v 183.28602 z"
         style="fill:#000000;stroke:none;stroke-width:1.62337661;fill-opacity:1" />
      <path
         sodipodi:nodetypes="ccccccccccc"
         inkscape:connector-curvature="0"
         id="path3011"
         d="m 877.84904,431.50166 h 55.65862 c -8.24977,45.80357 -49.72109,97.40259 -114.94086,97.40259 -82.1698,0 -118.27457,-71.16063 -118.27457,-126.39145 0,-74.85557 47.25722,-127.40609 117.83974,-127.40609 62.00134,0 105.53178,45.0226 114.65097,97.11271 h -54.64401 c -6.3733,-20.04331 -25.96591,-47.10692 -60.00696,-47.10692 -38.35379,0 -64.50023,38.20297 -64.50023,76.24073 0,45.68469 31.12242,77.25534 64.35529,77.25534 30.37727,0 52.60196,-23.55422 59.86201,-47.10691 z"
         style="fill:#000000;stroke:none;stroke-width:1.62337661;fill-opacity:1" />
    </g>
  </g>
</svg>
